assets/img/icons/securitypolicies.svg

<svg xmlns="http://www.w3.org/2000/svg" width="64" height="64" viewBox="0 0 64 64"><title>SECURITY POLICIES</title><path d="M1.12 3.095h18.69l3.51 3.491 36.645.23v6.276l-52.892.366-.487 41.012H1.12z" fill="#fff" fill-rule="evenodd"/><g fill="none" fill-rule="evenodd"><path fill="#c4e1f7" d="M6.945 14H64v42H6.945z"/><path fill="#1485E0" d="M4 56h30v-2H4z"/><path d="M63 56h-5v-2h4V14H8v38c0 2.206-1.794 4-4 4s-4-1.794-4-4V3a1 1 0 0 1 1-1h18c.266 0 .52.105.707.293L23.414 6H59a1 1 0 0 1 1 1v3h-2V8H23a.996.996 0 0 1-.707-.293L18.586 4H2v48c0 1.103.897 2 2 2s2-.897 2-2V13a1 1 0 0 1 1-1h56a1 1 0 0 1 1 1v42a1 1 0 0 1-1 1" fill="#1485E0"/><path d="M54 45h-2v-4c0-2.757-2.243-5-5-5h-2c-2.757 0-5 2.243-5 5v4h-2v-4c0-3.859 3.141-7 7-7h2c3.859 0 7 3.141 7 7v4M14 26h42v-6H14v6zm43 2H13a1 1 0 0 1-1-1v-8a1 1 0 0 1 1-1h44a1 1 0 0 1 1 1v8a1 1 0 0 1-1 1z" fill="#1485E0"/><path fill="#1485E0" d="M16 24h2v-2h-2zM20 24h2v-2h-2zM24 24h2v-2h-2zM28 24h2v-2h-2zM32 24h2v-2h-2zM36 24h2v-2h-2zM40 24h2v-2h-2zM12 33h18v-1H12zM12 37h18v-1H12z"/><rect fill="#C4E1F7" x="37" y="45" width="18" height="16" rx="4"/><path d="M39 46a1 1 0 0 0-1 1v12a1 1 0 0 0 1 1h14a1 1 0 0 0 1-1V47a1 1 0 0 0-1-1H39zm14 16H39c-1.654 0-3-1.346-3-3V47c0-1.654 1.346-3 3-3h14c1.654 0 3 1.346 3 3v12c0 1.654-1.346 3-3 3z" fill="#1485E0"/><path d="M45 52.732V57h2v-4.268A2.001 2.001 0 0 0 46 49a2.001 2.001 0 1 0-1 3.732z" stroke="#1485E0" fill="#FFF"/></g></svg>

<?xml version="1.0" encoding="UTF-8" standalone="no"?>
<svg
   xmlns:dc="http://purl.org/dc/elements/1.1/"
   xmlns:cc="http://creativecommons.org/ns#"
   xmlns:rdf="http://www.w3.org/1999/02/22-rdf-syntax-ns#"
   xmlns:svg="http://www.w3.org/2000/svg"
   xmlns="http://www.w3.org/2000/svg"
   xmlns:sodipodi="http://sodipodi.sourceforge.net/DTD/sodipodi-0.dtd"
   xmlns:inkscape="http://www.inkscape.org/namespaces/inkscape"
   width="64px"
   height="64px"
   viewBox="0 0 64 64"
   version="1.1"
   id="svg27"
   sodipodi:docname="securitypolicies.svg"
   inkscape:version="0.92.1 r">
  <metadata
     id="metadata31">
    <rdf:RDF>
      <cc:Work
         rdf:about="">
        <dc:format>image/svg+xml</dc:format>
        <dc:type
           rdf:resource="http://purl.org/dc/dcmitype/StillImage" />
      </cc:Work>
    </rdf:RDF>
  </metadata>
  <sodipodi:namedview
     pagecolor="#ffffff"
     bordercolor="#666666"
     borderopacity="1"
     objecttolerance="10"
     gridtolerance="10"
     guidetolerance="10"
     inkscape:pageopacity="0"
     inkscape:pageshadow="2"
     inkscape:window-width="2560"
     inkscape:window-height="1353"
     id="namedview29"
     showgrid="false"
     inkscape:snap-global="false"
     inkscape:zoom="10.429825"
     inkscape:cx="10.910115"
     inkscape:cy="28.939303"
     inkscape:window-x="0"
     inkscape:window-y="240"
     inkscape:window-maximized="1"
     inkscape:current-layer="svg27" />
  <!-- Generator: Sketch 42 (36781) - http://www.bohemiancoding.com/sketch -->
  <title
     id="title2">SECURITY POLICIES</title>
  <desc
     id="desc4">Created with Sketch.</desc>
  <path
     style="opacity:1;fill:#ffffff;fill-opacity:1;fill-rule:evenodd;stroke-width:2.98258138"
     d="M 1.1197225,3.0948169 H 19.809432 l 3.51,3.49134 36.64563,0.22988 V 13.091607 L 7.0726038,13.457627 6.5863192,54.469817 H 1.1197225 Z"
     id="rect4619-8"
     inkscape:connector-curvature="0"
     sodipodi:nodetypes="ccccccccc" />
  <defs
     id="defs6" />
  <g
     id="STYLEGUIDE"
     stroke="none"
     stroke-width="1"
     fill="none"
     fill-rule="evenodd">
    <g
       id="SECURITY-POLICIES">
      <rect
         id="Rectangle"
         x="6.9453321"
         y="14"
         width="57.054668"
         height="42"
         style="fill:#c4e1f7;stroke-width:1.00937271" />
      <polygon
         id="Fill-656"
         fill="#1485E0"
         points="4 56 34 56 34 54 4 54" />
      <path
         d="M63,56 L58,56 L58,54 L62,54 L62,14 L8,14 L8,52 C8,54.206 6.206,56 4,56 C1.794,56 0,54.206 0,52 L0,3 C0,2.447 0.447,2 1,2 L19,2 C19.266,2 19.52,2.105 19.707,2.293 L23.414,6 L59,6 C59.553,6 60,6.447 60,7 L60,10 L58,10 L58,8 L23,8 C22.734,8 22.48,7.895 22.293,7.707 L18.586,4 L2,4 L2,52 C2,53.103 2.897,54 4,54 C5.103,54 6,53.103 6,52 L6,13 C6,12.447 6.447,12 7,12 L63,12 C63.553,12 64,12.447 64,13 L64,55 C64,55.553 63.553,56 63,56"
         id="Fill-657"
         fill="#1485E0" />
      <path
         d="M54,45 L52,45 L52,41 C52,38.243 49.757,36 47,36 L45,36 C42.243,36 40,38.243 40,41 L40,45 L38,45 L38,41 C38,37.141 41.141,34 45,34 L47,34 C50.859,34 54,37.141 54,41 L54,45"
         id="Fill-659"
         fill="#1485E0" />
      <path
         d="M14,26 L56,26 L56,20 L14,20 L14,26 Z M57,28 L13,28 C12.447,28 12,27.553 12,27 L12,19 C12,18.447 12.447,18 13,18 L57,18 C57.553,18 58,18.447 58,19 L58,27 C58,27.553 57.553,28 57,28 L57,28 Z"
         id="Fill-662"
         fill="#1485E0" />
      <polygon
         id="Fill-663"
         fill="#1485E0"
         points="16 24 18 24 18 22 16 22" />
      <polygon
         id="Fill-664"
         fill="#1485E0"
         points="20 24 22 24 22 22 20 22" />
      <polygon
         id="Fill-665"
         fill="#1485E0"
         points="24 24 26 24 26 22 24 22" />
      <polygon
         id="Fill-666"
         fill="#1485E0"
         points="28 24 30 24 30 22 28 22" />
      <polygon
         id="Fill-667"
         fill="#1485E0"
         points="32 24 34 24 34 22 32 22" />
      <polygon
         id="Fill-668"
         fill="#1485E0"
         points="36 24 38 24 38 22 36 22" />
      <polygon
         id="Fill-669"
         fill="#1485E0"
         points="40 24 42 24 42 22 40 22" />
      <polygon
         id="Fill-670"
         fill="#1485E0"
         points="12 33 30 33 30 32 12 32" />
      <polygon
         id="Fill-671"
         fill="#1485E0"
         points="12 37 30 37 30 36 12 36" />
      <rect
         id="Rectangle-5"
         fill="#C4E1F7"
         x="37"
         y="45"
         width="18"
         height="16"
         rx="4" />
      <path
         d="M39,46 C38.448,46 38,46.448 38,47 L38,59 C38,59.552 38.448,60 39,60 L53,60 C53.552,60 54,59.552 54,59 L54,47 C54,46.448 53.552,46 53,46 L39,46 Z M53,62 L39,62 C37.346,62 36,60.654 36,59 L36,47 C36,45.346 37.346,44 39,44 L53,44 C54.654,44 56,45.346 56,47 L56,59 C56,60.654 54.654,62 53,62 L53,62 Z"
         id="Fill-658"
         fill="#1485E0" />
      <path
         d="M45,52.7316883 L45,57 L47,57 L47,52.7316883 C47.5974098,52.3854293 48,51.7389429 48,51 C48,49.897 47.103,49 46,49 C44.897,49 44,49.897 44,51 C44,51.7389429 44.4025902,52.3854293 45,52.7316883 Z"
         id="Combined-Shape"
         stroke="#1485E0"
         fill="#FFFFFF" />
    </g>
  </g>
</svg>
